svgs/sharp-regular/apartment.svg

<svg xmlns="http://www.w3.org/2000/svg" viewBox="0 0 576 512"><!--! Font Awesome Pro 6.6.0 by @fontawesome - https://fontawesome.com License - https://fontawesome.com/license (Commercial License) Copyright 2024 Fonticons, Inc. --><path d="M496 192l-48 0 0-48 0-96 0-48L400 0 176 0 128 0l0 48 0 48L80 96 48 96 0 96l0 48L0 464l0 48 48 0 80 0 128 0 32 0 32 0 128 0 80 0 48 0 0-48 0-224 0-48-48 0-32 0zM320 384l-64 0 0 80-128 0-80 0 0-320 80 0 48 0 0-48 0-48 224 0 0 144 0 48 48 0 80 0 0 224-80 0-128 0 0-80zm-16-48l64 0 0-64-64 0 0 64zm192 96l0-64-64 0 0 64 64 0zM80 336l64 0 0-64-64 0 0 64zm64 96l0-64-64 0 0 64 64 0zm64-96l64 0 0-64-64 0 0 64zM368 80l-64 0 0 64 64 0 0-64zM208 80l0 64 64 0 0-64-64 0zM368 240l0-64-64 0 0 64 64 0zm64 96l64 0 0-64-64 0 0 64zM144 240l0-64-64 0 0 64 64 0zm64 0l64 0 0-64-64 0 0 64z"/></svg>

<svg xmlns="http://www.w3.org/2000/svg" viewBox="0 0 576 512"><!--! Font Awesome Pro 6.4.2 by @fontawesome - https://fontawesome.com License - https://fontawesome.com/license (Commercial License) Copyright 2023 Fonticons, Inc. --><path d="M496 192H448V144 48 0H400 176 128V48 96H80 48 0v48V464v48H48h80H256h32 32H448h80 48V464 240 192H528 496zM320 384H256v80H128 48V144h80 48V96 48H400V192v48h48 80V464H448 320V384zm-16-48h64V272H304v64zm192 96V368H432v64h64zM80 336h64V272H80v64zm64 96V368H80v64h64zm64-96h64V272H208v64zM368 80H304v64h64V80zM208 80v64h64V80H208zM368 240V176H304v64h64zm64 96h64V272H432v64zM144 240V176H80v64h64zm64 0h64V176H208v64z"/></svg>
